X: 1
T: Spelmanstr\"affen
C: Ivar Hultquist
B: Svenska Folkl\aatar f\"or tv\aa fioler
Z: 2006 John Chambers <jc@trillian.mit.edu>
M: 2/4
L: 1/16
K: D
a2 \
|  "D"a3f  f3d  |    d3A  A3A  | (5ABA^GA BA=GF | "A7"G6 g2 \
|     g3e  e3c  |    c3A  A3A  | (5ABA^GA BAGA  |  "D"F6 a2 |
|  "D"a3f  f3d  |    d3A  A3d  | (5dedcd  edcd  |  "G"B6 B2 \
| "A7"ABcd e2g2 | "D"fafd A2df | "A7"g2ec Acec  |  "D"d6 :|
|: d2 \
|  "G"B3G  DGBd |    g6  (3gag |  "D"f3d  Adef |    a6 f2 \
| "A7"g2bg e2g2 | "D"f2af d2f2 | "A7"e2ef edcB | "D"A6 d2 |
|  "G"B3G  DGBd |    g6  (3gag |  "D"f3d  Adef |    a6 f2 \
| "A7"gabg e2g2 | "D"fgaf d2f2 | "A7"efge cAce | "D"d6 :|
